gtk/icon/32x32/apps/brave.svg

<svg xmlns="http://www.w3.org/2000/svg" width="32" height="32" version="1.1" viewBox="0 0 32 32">
 <path d="M 11.571986,2.9999999 9.2160731,5.3968797 C 9.1848202,5.4071978 8.9546412,5.214977 8.7035588,5.1412157 8.0305925,4.9435317 7.1761431,4.9772738 6.5956375,5.2410205 6.2158897,5.4135445 6.0686833,5.5349468 5.1655569,6.4222701 4.1921263,7.378645 4.0000026,7.6081428 4.0000001,7.8113324 c 0,0.052619 0.3517532,0.5659197 0.5249138,0.9679688 L 4.8390357,9.5107457 4.4353618,10.618168 c -0.2219534,0.609013 -0.4134983,1.140729 -0.4270953,1.182616 -0.034432,0.106726 3.1170595,12.244349 3.2817453,12.635342 0.2989666,0.709761 0.7689607,1.346255 1.3777263,1.867578 0.5496769,0.470711 6.1282709,4.278098 6.6805969,4.559568 C 15.511808,30.946582 15.775144,30.994709 16,31 c 0.224861,-0.0053 0.488191,-0.05342 0.651664,-0.136728 0.552326,-0.28147 6.130919,-4.08886 6.680597,-4.559568 0.608765,-0.521323 1.078759,-1.157817 1.377726,-1.867578 0.164685,-0.390993 3.316179,-12.528616 3.281748,-12.635342 -0.0136,-0.04189 -0.205143,-0.573603 -0.427097,-1.182616 L 27.160964,9.5107457 27.475085,8.7793012 C 27.648258,8.3772521 28,7.8639549 28,7.8113324 27.999997,7.6081421 27.807884,7.378645 26.834444,6.4222701 25.931317,5.5349468 25.78411,5.4135445 25.404361,5.2410205 24.823856,4.9772738 23.969406,4.9435317 23.29644,5.1412157 23.045359,5.2149767 22.815179,5.407198 22.783926,5.3968797 L 20.428013,2.9999999 H 16 Z" style="opacity:0.2"/>
 <path style="fill:#ee5132" d="M 11.571986,1.9999999 9.2160731,4.3968797 C 9.1848202,4.4071978 8.9546412,4.214977 8.7035588,4.1412157 8.0305925,3.9435317 7.1761431,3.9772738 6.5956375,4.2410205 6.2158897,4.4135445 6.0686833,4.5349468 5.1655569,5.4222701 4.1921263,6.378645 4.0000026,6.6081428 4.0000001,6.8113324 c 0,0.052619 0.3517532,0.5659197 0.5249138,0.9679688 L 4.8390357,8.5107457 4.4353618,9.6181678 C 4.2134084,10.227181 4.0218635,10.758897 4.0082665,10.800784 3.9738345,10.90751 7.125326,23.045133 7.2900118,23.436126 c 0.2989666,0.709761 0.7689607,1.346255 1.3777263,1.867578 0.5496769,0.470711 6.1282709,4.278098 6.6805969,4.559568 C 15.511808,29.946582 15.775144,29.994709 16,30 c 0.224861,-0.0053 0.488191,-0.05342 0.651664,-0.136728 0.552326,-0.28147 6.130919,-4.08886 6.680597,-4.559568 0.608765,-0.521323 1.078759,-1.157817 1.377726,-1.867578 0.164685,-0.390993 3.316179,-12.528616 3.281748,-12.635342 -0.0136,-0.04189 -0.205143,-0.573603 -0.427097,-1.1826162 L 27.160964,8.5107457 27.475085,7.7793012 C 27.648258,7.3772521 28,6.8639549 28,6.8113324 27.999997,6.6081421 27.807884,6.378645 26.834444,5.4222701 25.931317,4.5349468 25.78411,4.4135445 25.404361,4.2410205 24.823856,3.9772738 23.969406,3.9435317 23.29644,4.1412157 23.045359,4.2149767 22.815179,4.407198 22.783926,4.3968797 L 20.428013,1.9999999 H 16 Z"/>
 <path style="opacity:0.2" d="m 17.128334,24.24708 c 0,0 1.227085,-0.808755 2.319524,-1.590232 0.614584,-0.439657 0.711447,-0.551754 0.611006,-0.707241 -0.08041,-0.124346 -2.063151,-1.099354 -3.011067,-1.480515 -0.997043,-0.400898 -1.101785,-0.401374 -2.068961,-0.0079 -0.867279,0.351768 -2.818573,1.316326 -2.982322,1.474166 -0.169073,0.162974 -0.08393,0.312454 0.342179,0.600646 0.8778,0.593715 2.560666,1.735532 2.560666,1.735532 1.144274,0.974744 1.05542,0.975696 2.228975,-0.02381 z m -4.59966,-3.487335 c 1.190031,-0.559163 1.367937,-0.674778 2.277645,-1.480173 0.76477,-0.677053 0.906287,-0.878467 0.797479,-1.134991 -0.03687,-0.08678 -0.611521,-0.616732 -1.277037,-1.177482 -1.572985,-1.3254 -1.507136,-1.138589 -0.908599,-2.577251 0.355441,-0.854339 0.44823,-1.140257 0.44697,-1.377123 -0.0021,-0.357827 -0.134732,-0.62631 -0.401692,-0.811929 -0.108251,-0.0754 -1.058705,-0.458389 -2.112122,-0.851456 C 10.297901,10.9563 9.4420464,10.608712 9.4494186,10.576885 9.46624,10.504129 10.62794,10.377666 11.471277,10.356765 l 0.637919,-0.01588 1.172666,0.409312 c 1.023262,0.357165 1.183883,0.430476 1.260654,0.575432 0.04839,0.09154 0.08732,0.214299 0.08651,0.272874 -7.14e-4,0.05874 -0.190441,0.90757 -0.421404,1.886361 -0.404548,1.714367 -0.415943,1.783631 -0.310778,1.888346 0.166861,0.166148 1.80259,0.551887 2.313254,0.512943 0.583314,-0.04445 1.774898,-0.400158 1.895251,-0.519371 0.09727,-0.09657 0.07884,-0.205833 -0.317385,-1.881918 -0.231357,-0.978791 -0.421303,-1.827627 -0.422097,-1.886361 -7.14e-4,-0.05873 0.03844,-0.182022 0.08714,-0.274038 0.07685,-0.144982 0.22786,-0.216151 1.139141,-0.534637 1.469109,-0.513762 1.439241,-0.509529 2.774196,-0.391003 0.622494,0.05529 1.156763,0.123817 1.187261,0.15239 0.0327,0.03069 -0.0043,0.07487 -0.09113,0.107415 -0.08062,0.03042 -0.939434,0.352694 -1.908464,0.716023 -0.969022,0.363356 -1.863628,0.726369 -1.988004,0.806691 -0.29234,0.1889 -0.434244,0.458521 -0.436227,0.829073 -0.0014,0.234406 0.0909,0.518154 0.436707,1.34519 0.241064,0.576517 0.438295,1.102344 0.438295,1.16846 0,0.267477 -0.1995,0.483469 -1.305352,1.413157 -0.635355,0.53416 -1.199336,1.049828 -1.253289,1.145918 -0.05396,0.09604 -0.08479,0.242608 -0.0685,0.325841 0.02792,0.142337 0.788854,0.877753 1.563959,1.511259 0.325437,0.265995 2.296992,1.499406 2.612838,1.549435 0.264505,0.04206 0.54721,-0.352667 1.009856,-0.735813 0.453627,-0.375765 0.723986,-0.75182 0.90779,-1.262619 0.172389,-0.47913 0.129043,-0.801981 -0.21191,-1.578273 -0.260167,-0.592365 -0.329237,-0.91773 -0.241958,-1.139781 0.02006,-0.05106 0.724044,-0.717056 1.564417,-1.48004 1.830604,-1.662009 2.267508,-1.959779 2.367868,-2.256702 0.11147,-0.329703 0.03283,-1.263674 -0.217305,-1.700448 -0.598415,-1.0448 -3.082959,-4.3159308 -3.294012,-4.3159308 -1.087111,0.1738207 -1.996888,0.5581828 -3.142317,0.7348082 -0.08998,1.323e-4 -0.472731,-0.093393 -0.85056,-0.2082142 -1.613232,-0.489211 -2.136479,-0.5266734 -2.448838,-0.5266734 -0.31236,0 -0.835607,0.037304 -2.448839,0.5266734 C 13.170801,7.6412252 12.783883,7.735147 12.688824,7.735147 11.560392,7.5719091 10.723896,7.1331514 9.5557257,7.0000742 9.3736094,7.1207166 7.757725,9.3365701 7.0887007,10.304752 6.301965,11.443236 6.0796249,12.089358 6.0156364,12.522824 c -0.089535,0.606573 0.1381014,0.708669 2.4884343,2.838458 0.7906008,0.716368 1.453583,1.343497 1.473287,1.393633 0.08818,0.224617 0.01852,0.563131 -0.2378419,1.156104 -0.3520764,0.814443 -0.3836122,1.040541 -0.2136808,1.532265 0.1847915,0.534717 0.498053,0.967045 0.97122,1.340323 0.439999,0.347085 0.610167,0.694779 0.869776,0.70052 0.09291,0.0021 0.615744,-0.468099 1.161853,-0.724623 z"/>
 <path d="m 17.128334,23.24708 c 0,0 1.227085,-0.808755 2.319524,-1.590232 0.614584,-0.439657 0.711447,-0.551754 0.611006,-0.707241 -0.08041,-0.124346 -2.063151,-1.099354 -3.011067,-1.480515 -0.997043,-0.400898 -1.101785,-0.401374 -2.068961,-0.0079 -0.867279,0.351768 -2.818573,1.316326 -2.982322,1.474166 -0.169073,0.162974 -0.08393,0.312454 0.342179,0.600646 0.8778,0.593715 2.560666,1.735532 2.560666,1.735532 1.144274,0.974744 1.05542,0.975696 2.228975,-0.02381 z m -4.59966,-3.487335 c 1.190031,-0.559163 1.367937,-0.674778 2.277645,-1.480173 0.76477,-0.677053 0.906287,-0.878467 0.797479,-1.134991 -0.03687,-0.08678 -0.611521,-0.616732 -1.277037,-1.177482 -1.572985,-1.3254 -1.507136,-1.138589 -0.908599,-2.577251 0.355441,-0.854339 0.44823,-1.140257 0.44697,-1.377123 -0.0021,-0.357827 -0.134732,-0.62631 -0.401692,-0.811929 -0.108251,-0.0754 -1.058705,-0.458389 -2.112122,-0.851456 C 10.297901,9.9563002 9.4420464,9.6087118 9.4494186,9.5768849 9.46624,9.504129 10.62794,9.3776656 11.471277,9.3567651 l 0.637919,-0.015876 1.172666,0.4093115 c 1.023262,0.3571654 1.183883,0.4304764 1.260654,0.5754324 0.04839,0.09154 0.08732,0.214299 0.08651,0.272874 -7.14e-4,0.05874 -0.190441,0.90757 -0.421404,1.886361 -0.404548,1.714367 -0.415943,1.783631 -0.310778,1.888346 0.166861,0.166148 1.80259,0.551887 2.313254,0.512943 0.583314,-0.04445 1.774898,-0.400158 1.895251,-0.519371 0.09727,-0.09657 0.07884,-0.205833 -0.317385,-1.881918 -0.231357,-0.978791 -0.421303,-1.827627 -0.422097,-1.886361 -7.14e-4,-0.05873 0.03844,-0.182022 0.08714,-0.274038 0.07685,-0.144982 0.22786,-0.216151 1.139141,-0.5346365 1.469109,-0.5137627 1.439241,-0.5095291 2.774196,-0.3910031 0.622494,0.055293 1.156763,0.1238167 1.187261,0.15239 0.0327,0.030688 -0.0043,0.074873 -0.09113,0.1074143 -0.08062,0.030422 -0.939434,0.3526943 -1.908464,0.7160233 -0.969022,0.363356 -1.863628,0.726369 -1.988004,0.806691 -0.29234,0.1889 -0.434244,0.458521 -0.436227,0.829073 -0.0014,0.234406 0.0909,0.518154 0.436707,1.34519 0.241064,0.576517 0.438295,1.102344 0.438295,1.16846 0,0.267477 -0.1995,0.483469 -1.305352,1.413157 -0.635355,0.53416 -1.199336,1.049828 -1.253289,1.145918 -0.05396,0.09604 -0.08479,0.242608 -0.0685,0.325841 0.02792,0.142337 0.788854,0.877753 1.563959,1.511259 0.325437,0.265995 2.296992,1.499406 2.612838,1.549435 0.264505,0.04206 0.54721,-0.352667 1.009856,-0.735813 0.453627,-0.375765 0.723986,-0.75182 0.90779,-1.262619 0.172389,-0.47913 0.129043,-0.801981 -0.21191,-1.578273 -0.260167,-0.592365 -0.329237,-0.91773 -0.241958,-1.139781 0.02006,-0.05106 0.724044,-0.717056 1.564417,-1.48004 1.830604,-1.662009 2.267508,-1.959779 2.367868,-2.256702 0.11147,-0.329703 0.03283,-1.263674 -0.217305,-1.700448 -0.598415,-1.0448001 -3.082959,-4.3159308 -3.294012,-4.3159308 -1.087111,0.1738207 -1.996888,0.5581828 -3.142317,0.7348082 -0.08998,1.323e-4 -0.472731,-0.093393 -0.85056,-0.2082142 -1.613232,-0.489211 -2.136479,-0.5266734 -2.448838,-0.5266734 -0.31236,0 -0.835607,0.037304 -2.448839,0.5266734 C 13.170801,6.6412252 12.783883,6.735147 12.688824,6.735147 11.560392,6.5719091 10.723896,6.1331514 9.5557257,6.0000742 9.3736094,6.1207166 7.757725,8.3365701 7.0887007,9.3047524 6.301965,10.443236 6.0796249,11.089358 6.0156364,11.522824 c -0.089535,0.606573 0.1381014,0.708669 2.4884343,2.838458 0.7906008,0.716368 1.453583,1.343497 1.473287,1.393633 0.08818,0.224617 0.01852,0.563131 -0.2378419,1.156104 -0.3520764,0.814443 -0.3836122,1.040541 -0.2136808,1.532265 0.1847915,0.534717 0.498053,0.967045 0.97122,1.340323 0.439999,0.347085 0.610167,0.694779 0.869776,0.70052 0.09291,0.0021 0.615744,-0.468099 1.161853,-0.724623 z" style="fill:#ffffff"/>
 <path style="fill:#ffffff;opacity:0.1" d="M 11.572266 2 L 9.2167969 4.3964844 C 9.185544 4.4068025 8.9542074 4.2143863 8.703125 4.140625 C 8.0301587 3.942941 7.1762087 3.9764877 6.5957031 4.2402344 C 6.2159553 4.4127584 6.069142 4.5345517 5.1660156 5.421875 C 4.192585 6.3782499 4.0000025 6.6073573 4 6.8105469 C 4 6.8438792 4.1376662 7.0704527 4.2851562 7.328125 C 4.459262 7.1273698 4.7143477 6.8656291 5.1660156 6.421875 C 6.069142 5.5345517 6.2159553 5.4127584 6.5957031 5.2402344 C 7.1762087 4.9764877 8.0301587 4.942941 8.703125 5.140625 C 8.9542074 5.2143863 9.185544 5.4068025 9.2167969 5.3964844 L 11.572266 3 L 16 3 L 20.427734 3 L 22.783203 5.3964844 C 22.814456 5.4068027 23.045794 5.214386 23.296875 5.140625 C 23.969841 4.942941 24.823792 4.9764877 25.404297 5.2402344 C 25.784046 5.4127584 25.930857 5.5345517 26.833984 6.421875 C 27.285657 6.8656291 27.540739 7.1273699 27.714844 7.328125 C 27.862334 7.0704535 28 6.8438814 28 6.8105469 C 27.999997 6.6073566 27.807424 6.3782499 26.833984 5.421875 C 25.930857 4.5345517 25.784046 4.4127584 25.404297 4.2402344 C 24.823792 3.9764877 23.969841 3.942941 23.296875 4.140625 C 23.045794 4.214386 22.814456 4.4068027 22.783203 4.3964844 L 20.427734 2 L 16 2 L 11.572266 2 z M 4.6425781 9.0527344 L 4.4355469 9.6191406 C 4.2135935 10.228154 4.0214095 10.758894 4.0078125 10.800781 C 4.0061777 10.805848 4.1441822 11.333863 4.15625 11.390625 C 4.2341756 11.173715 4.2906332 11.016766 4.4355469 10.619141 L 4.8398438 9.5117188 L 4.6425781 9.0527344 z M 27.357422 9.0527344 L 27.160156 9.5117188 L 27.564453 10.619141 C 27.709367 11.016766 27.765824 11.173715 27.84375 11.390625 C 27.855818 11.333863 27.993822 10.805848 27.992188 10.800781 C 27.978587 10.758891 27.786407 10.228154 27.564453 9.6191406 L 27.357422 9.0527344 z"/>
</svg>

<svg xmlns="http://www.w3.org/2000/svg" width="32" height="32" version="1.1">
 <path style="opacity:0.2" d="M 11.572,3 9.2161,5.3969 C 9.1848,5.4072 8.9546,5.215 8.7036,5.1412 8.0306,4.9435 7.1761,4.9773 6.5956,5.241 6.2159,5.4135 6.0687,5.5349 5.1656,6.4223 4.1921,7.3786 4,7.6081 4,7.8113 4,7.864 4.3518,8.3773 4.5249,8.7793 L 4.839,9.5107 4.4354,10.618 C 4.2134,11.227 4.0219,11.759 4.0083,11.801 3.9738,11.908 7.1253,24.045 7.29,24.436 7.589,25.146 8.059,25.782 8.6677,26.304 9.2174,26.774 14.796,30.582 15.348,30.863 15.512,30.947 15.775,30.995 16,31 16.225,30.995 16.488,30.947 16.652,30.863 17.204,30.582 22.783,26.774 23.332,26.304 23.941,25.782 24.411,25.146 24.71,24.436 24.875,24.045 28.026,11.908 27.992,11.801 27.978,11.759 27.787,11.227 27.565,10.618 L 27.161,9.5107 27.475,8.7793 C 27.648,8.3773 28,7.864 28,7.8113 28,7.6081 27.808,7.3786 26.834,6.4223 25.931,5.5349 25.784,5.4135 25.404,5.241 24.824,4.9773 23.969,4.9435 23.296,5.1412 23.045,5.215 22.815,5.4072 22.784,5.3969 L 20.428,3 H 16 Z"/>
 <path style="fill:#ee5132" d="M 11.572,2 9.2161,4.3969 C 9.1848,4.4072 8.9546,4.215 8.7036,4.1412 8.0306,3.9435 7.1761,3.9773 6.5956,4.241 6.2159,4.4135 6.0687,4.5349 5.1656,5.4223 4.1921,6.3786 4,6.6081 4,6.8113 4,6.864 4.3518,7.3773 4.5249,7.7793 L 4.839,8.5107 4.4354,9.6182 C 4.2134,10.227 4.0219,10.759 4.0083,10.801 3.9738,10.908 7.1253,23.045 7.29,23.436 7.589,24.146 8.059,24.782 8.6677,25.304 9.2174,25.774 14.796,29.582 15.348,29.863 15.512,29.947 15.775,29.995 16,30 16.225,29.995 16.488,29.947 16.652,29.863 17.204,29.582 22.783,25.774 23.332,25.304 23.941,24.782 24.411,24.146 24.71,23.436 24.875,23.045 28.026,10.908 27.992,10.801 27.978,10.759 27.787,10.227 27.565,9.6182 L 27.161,8.5107 27.475,7.7793 C 27.648,7.3773 28,6.864 28,6.8113 28,6.6081 27.808,6.3786 26.834,5.4223 25.931,4.5349 25.784,4.4135 25.404,4.241 24.824,3.9773 23.969,3.9435 23.296,4.1412 23.045,4.215 22.815,4.4072 22.784,4.3969 L 20.428,2 H 16 Z"/>
 <path style="opacity:0.2" d="M 17.128,24.247 C 17.128,24.247 18.355,23.438 19.448,22.657 20.062,22.217 20.159,22.105 20.059,21.95 19.978,21.825 17.996,20.85 17.048,20.469 16.051,20.068 15.946,20.068 14.979,20.461 14.112,20.813 12.16,21.778 11.997,21.935 11.827,22.098 11.913,22.248 12.339,22.536 13.216,23.13 14.899,24.272 14.899,24.272 16.044,25.246 15.955,25.247 17.128,24.248 Z M 12.529,20.76 C 13.719,20.201 13.897,20.085 14.806,19.28 15.571,18.603 15.713,18.401 15.604,18.145 15.567,18.058 14.992,17.528 14.327,16.967 12.754,15.642 12.82,15.829 13.418,14.39 13.774,13.536 13.866,13.25 13.865,13.013 13.863,12.655 13.73,12.386 13.463,12.201 13.355,12.125 12.405,11.742 11.351,11.349 10.298,10.956 9.442,10.609 9.4494,10.577 9.4662,10.504 10.628,10.378 11.471,10.357 L 12.109,10.341 13.282,10.75 C 14.305,11.107 14.466,11.181 14.543,11.326 14.591,11.417 14.63,11.54 14.629,11.599 14.628,11.657 14.439,12.506 14.208,13.485 13.803,15.199 13.792,15.268 13.897,15.373 14.064,15.539 15.699,15.925 16.21,15.886 16.793,15.842 17.985,15.486 18.105,15.367 18.203,15.27 18.184,15.161 17.788,13.485 17.557,12.506 17.367,11.657 17.366,11.599 17.365,11.54 17.404,11.416 17.453,11.324 17.53,11.179 17.681,11.108 18.592,10.79 20.061,10.276 20.031,10.28 21.366,10.399 21.989,10.454 22.523,10.523 22.554,10.551 22.586,10.582 22.549,10.626 22.462,10.659 22.382,10.689 21.523,11.011 20.554,11.375 19.585,11.738 18.69,12.101 18.566,12.181 18.274,12.37 18.132,12.64 18.13,13.01 18.128,13.245 18.221,13.529 18.566,14.356 18.808,14.932 19.005,15.458 19.005,15.524 19.005,15.792 18.805,16.008 17.699,16.937 17.064,17.471 16.5,17.987 16.446,18.083 16.392,18.179 16.361,18.326 16.378,18.409 16.406,18.551 17.166,19.287 17.942,19.92 18.267,20.186 20.239,21.42 20.554,21.47 20.819,21.512 21.102,21.117 21.564,20.734 22.018,20.358 22.288,19.982 22.472,19.471 22.644,18.992 22.601,18.669 22.26,17.893 22,17.301 21.931,16.975 22.018,16.753 22.038,16.702 22.742,16.036 23.583,15.273 25.413,13.611 25.85,13.313 25.951,13.016 26.062,12.687 25.983,11.753 25.733,11.316 25.135,10.271 22.65,7.0001 22.439,7.0001 21.352,7.1739 20.442,7.5583 19.297,7.7349 19.207,7.735 18.824,7.6415 18.446,7.5267 16.833,7.0375 16.31,7 15.997,7 15.685,7 15.162,7.0373 13.549,7.5267 13.171,7.6412 12.784,7.7351 12.689,7.7351 11.56,7.5719 10.724,7.1332 9.5557,7.0001 9.3736,7.1207 7.7577,9.3366 7.0887,10.305 6.302,11.443 6.0796,12.089 6.0156,12.523 5.9261,13.129 6.1537,13.231 8.5041,15.361 9.2947,16.078 9.9577,16.705 9.9774,16.755 10.066,16.98 9.9959,17.318 9.7395,17.911 9.3874,18.725 9.3559,18.952 9.5258,19.443 9.7106,19.978 10.024,20.41 10.497,20.784 10.937,21.131 11.107,21.478 11.367,21.484 11.46,21.486 11.983,21.016 12.529,20.76 Z"/>
 <path style="fill:#ffffff" d="M 17.128,23.247 C 17.128,23.247 18.355,22.438 19.448,21.657 20.062,21.217 20.159,21.105 20.059,20.95 19.978,20.825 17.996,19.85 17.048,19.469 16.051,19.068 15.946,19.068 14.979,19.461 14.112,19.813 12.16,20.778 11.997,20.935 11.827,21.098 11.913,21.248 12.339,21.536 13.216,22.13 14.899,23.272 14.899,23.272 16.044,24.246 15.955,24.247 17.128,23.248 Z M 12.529,19.76 C 13.719,19.201 13.897,19.085 14.806,18.28 15.571,17.603 15.713,17.401 15.604,17.145 15.567,17.058 14.992,16.528 14.327,15.967 12.754,14.642 12.82,14.829 13.418,13.39 13.774,12.536 13.866,12.25 13.865,12.013 13.863,11.655 13.73,11.386 13.463,11.201 13.355,11.125 12.405,10.742 11.351,10.349 10.298,9.9563 9.442,9.6087 9.4494,9.5769 9.4662,9.5041 10.628,9.3777 11.471,9.3568 L 12.109,9.3409 13.282,9.7502 C 14.305,10.107 14.466,10.181 14.543,10.326 14.591,10.417 14.63,10.54 14.629,10.599 14.628,10.657 14.439,11.506 14.208,12.485 13.803,14.199 13.792,14.268 13.897,14.373 14.064,14.539 15.699,14.925 16.21,14.886 16.793,14.842 17.985,14.486 18.105,14.367 18.203,14.27 18.184,14.161 17.788,12.485 17.557,11.506 17.367,10.657 17.366,10.599 17.365,10.54 17.404,10.416 17.453,10.324 17.53,10.179 17.681,10.108 18.592,9.7898 20.061,9.2761 20.031,9.2803 21.366,9.3988 21.989,9.4541 22.523,9.5226 22.554,9.5512 22.586,9.5819 22.549,9.6261 22.462,9.6586 22.382,9.6891 21.523,10.011 20.554,10.375 19.585,10.738 18.69,11.101 18.566,11.181 18.274,11.37 18.132,11.64 18.13,12.01 18.128,12.245 18.221,12.529 18.566,13.356 18.808,13.932 19.005,14.458 19.005,14.524 19.005,14.792 18.805,15.008 17.699,15.937 17.064,16.471 16.5,16.987 16.446,17.083 16.392,17.179 16.361,17.326 16.378,17.409 16.406,17.551 17.166,18.287 17.942,18.92 18.267,19.186 20.239,20.42 20.554,20.47 20.819,20.512 21.102,20.117 21.564,19.734 22.018,19.358 22.288,18.982 22.472,18.471 22.644,17.992 22.601,17.669 22.26,16.893 22,16.301 21.931,15.975 22.018,15.753 22.038,15.702 22.742,15.036 23.583,14.273 25.413,12.611 25.85,12.313 25.951,12.016 26.062,11.687 25.983,10.753 25.733,10.316 25.135,9.2712 22.65,6.0001 22.439,6.0001 21.352,6.1739 20.442,6.5583 19.297,6.7349 19.207,6.735 18.824,6.6415 18.446,6.5267 16.833,6.0375 16.31,6 15.997,6 15.685,6 15.162,6.0373 13.549,6.5267 13.171,6.6412 12.784,6.7351 12.689,6.7351 11.56,6.5719 10.724,6.1332 9.5557,6.0001 9.3736,6.1207 7.7577,8.3366 7.0887,9.3048 6.302,10.443 6.0796,11.089 6.0156,11.523 5.9261,12.129 6.1537,12.231 8.5041,14.361 9.2947,15.078 9.9577,15.705 9.9774,15.755 10.066,15.98 9.9959,16.318 9.7395,16.911 9.3874,17.725 9.3559,17.952 9.5258,18.443 9.7106,18.978 10.024,19.41 10.497,19.784 10.937,20.131 11.107,20.478 11.367,20.484 11.46,20.486 11.983,20.016 12.529,19.76 Z"/>
 <path style="opacity:0.1;fill:#ffffff" d="M 11.572,2 9.2168,4.3965 C 9.1855,4.4068 8.9542,4.2144 8.7031,4.1406 8.0302,3.9429 7.1762,3.9765 6.5957,4.2402 6.216,4.4128 6.0691,4.5346 5.166,5.4219 4.1926,6.3782 4,6.6074 4,6.8105 4,6.8439 4.1377,7.0705 4.2852,7.3281 4.4593,7.1274 4.7143,6.8656 5.166,6.4219 6.0691,5.5346 6.216,5.4128 6.5957,5.2402 7.1762,4.9765 8.0302,4.9429 8.7031,5.1406 8.9542,5.2144 9.1855,5.4068 9.2168,5.3965 L 11.572,3 H 16 20.428 L 22.783,5.3965 C 22.814,5.4068 23.046,5.2144 23.297,5.1406 23.97,4.9429 24.824,4.9765 25.404,5.2402 25.784,5.4128 25.931,5.5346 26.834,6.4219 27.286,6.8656 27.541,7.1274 27.715,7.3281 27.862,7.0705 28,6.8439 28,6.8105 28,6.6074 27.807,6.3782 26.834,5.4219 25.931,4.5346 25.784,4.4128 25.404,4.2402 24.824,3.9765 23.97,3.9429 23.297,4.1406 23.046,4.2144 22.814,4.4068 22.783,4.3965 L 20.428,2 H 16 Z M 4.6426,9.0527 4.4355,9.6191 C 4.2136,10.228 4.0214,10.759 4.0078,10.801 4.0062,10.806 4.1442,11.334 4.1562,11.391 4.2342,11.174 4.2906,11.017 4.4355,10.619 L 4.8398,9.5117 Z M 27.357,9.0527 27.16,9.5117 27.564,10.619 C 27.709,11.017 27.766,11.174 27.844,11.391 27.856,11.334 27.994,10.806 27.992,10.801 27.979,10.759 27.786,10.228 27.564,9.6191 Z"/>
</svg>
